; generated by PrusaSlicer 2.6.1+win64 on 2023-11-18 at 11:29:45 UTC


;
;

;
;

;
;
; 

; external perimeters extrusion width = 0.45mm
; perimeters extrusion width = 0.45mm
; infill extrusion width = 0.45mm
; solid infill extrusion width = 0.45mm
; top infill extrusion width = 0.40mm
; support material extrusion width = 0.37mm
; first layer extrusion width = 0.50mm

M73 P0 R71
M201 X2500 Y2500 Z200 E2500 ; sets maximum accelerations, mm/sec^2
M203 X200 Y200 Z40 E100 ; sets maximum feedrates, mm / sec
M204 P2000 R1200 T2000 ; sets acceleration (P, T) and retract acceleration (R), mm/sec^2
M205 X8.00 Y8.00 Z2.00 E10.00 ; sets the jerk limits, mm/sec
M205 S0 T0 ; sets the minimum extruding and travel feed rate, mm/sec
;TYPE:Custom
M17 ; enable steppers
M862.3 P "MK4" ; printer model check
M862.1 P0.4 ; nozzle diameter check
M555 X74.9631 Y75.1571 W100.238 H55.3081

G90 ; use absolute coordinates
M83 ; extruder relative mode

M140 S100 ; set bed temp

M104 S170 ; set extruder temp for bed leveling
M109 R170 ; wait for temp


M84 E ; turn off E motor

G28 ; home all without mesh bed level

G1 X42 Y-4 Z5 F4800

M302 S160 ; lower cold extrusion limit to 160C


G1 E-2 F2400 ; retraction


M84 E ; turn off E motor

G29 P9 X10 Y-4 W32 H4



G0 Z40 F10000

M190 S100 ; wait for bed temp

M107

;
; MBL
;
M84 E ; turn off E motor
G29 P1 ; invalidate mbl & probe print area
G29 P1 X0 Y0 W50 H20 C ; probe near purge place
G29 P3.2 ; interpolate mbl probes
G29 P3.13 ; extrapolate mbl outside probe area
G29 A ; activate mbl

; prepare for purge
M104 S255
G0 X0 Y-4 Z15 F4800 ; move away and ready for the purge
M109 S255

G92 E0
M569 S0 E ; set spreadcycle mode for extruder

;
; Extrude purge line
;
G92 E0 ; reset extruder position
G1 E2 F2400 ; deretraction after the initial one before nozzle cleaning
G0 E7 X15 Z0.2 F500 ; purge
G0 X25 E4 F500 ; purge
G0 X35 E4 F650 ; purge
G0 X45 E4 F800 ; purge
G0 X48 Z0.05 F8000 ; wipe, move close to the bed
G0 X51 Z0.2 F8000 ; wipe, move quickly away from the bed

G92 E0
M221 S100 ; set flow to 100%
G21 ; set units to millimeters
G90 ; use absolute coordinates
M83 ; use relative distances for extrusion
M900 K0.04 ; Filament gcode



M142 S40 ; set heatbreak target temp
M107
;LAYER_CHANGE
;Z:0.2
;HEIGHT:0.2
;BEFORE_LAYER_CHANGE
G92 E0.0
;0.2


G1 E-.8 F2100
G1 Z.2 F720
;AFTER_LAYER_CHANGE
;0.2
; printing object ski_tip_4_final_construction_lines.STL id:0 copy 0
G1 Z.4
G1 X85.348 Y105.71 F12000
G1 Z.2 F720
G1 E.8 F1500
M204 P600
;TYPE:Support material interface
;WIDTH:0.37
G1 F1200
G1 X85.13 Y106.01 E.01009
G1 X86.552 Y107.431 E.05467
G1 X85.508 Y107.133 E.02953
G1 X84.83 Y106.455 E.02608
G1 X84.558 Y106.929 E.01486
G1 X84.67 Y107.04 E.00429
M204 P1000
G1 X85.44 Y107.541 F12000
M204 P600
;TYPE:Support material
;WIDTH:0.5
G1 F1200
G1 X86.369 Y107.802 E.03667
G1 X87.232 Y108.209 E.03626
G1 X88.016 Y108.752 E.03625
G1 X88.692 Y109.407 E.03577
G1 X89.256 Y110.168 E.036
G1 X89.687 Y111.007 E.03585
G1 X89.842 Y111.487 E.01917
G1 X88.069 Y111.509 E.06739
G1 X88.273 Y112.076 E.0229
G1 X88.39 Y112.513 E.01719
G1 X88.438 Y112.783 E.01042
G1 X88.479 Y113.233 E.01717
G1 X88.481 Y113.509 E.01049
G1 X88.445 Y113.96 E.0172
G1 X88.4 Y114.231 E.01044
G1 X88.289 Y114.67 E.01721
G1 X88.199 Y114.931 E.01049
G1 X88.014 Y115.345 E.01723
G1 X87.881 Y115.587 E.0105
G1 X87.629 Y115.964 E.01723
G1 X87.456 Y116.18 E.01052
G1 X87.143 Y116.509 E.01726
G1 X86.937 Y116.693 E.0105
G1 X86.572 Y116.965 E.0173
G1 X86.337 Y117.111 E.01051
G1 X85.932 Y117.316 E.01725
G1 X85.675 Y117.42 E.01054
G1 X85.24 Y117.554 E.0173
G1 X84.97 Y117.613 E.0105
G1 X84.518 Y117.671 E.01732
G1 X84.242 Y117.683 E.0105
G1 X83.787 Y117.664 E.01731
G1 X83.512 Y117.628 E.01054
G1 X83.068 Y117.532 E.01726
G1 X82.803 Y117.45 E.01054
G1 X82.381 Y117.28 E.01729
G1 X82.135 Y117.154 E.0105
G1 X81.748 Y116.915 E.01729
G1 X81.526 Y116.749 E.01054
G1 X81.187 Y116.448 E.01723
G1 X80.996 Y116.247 E.01054
G1 X80.713 Y115.893 E.01723
G1 X80.559 Y115.663 E.01052
G1 X80.34 Y115.266 E.01723
G1 X80.228 Y115.014 E.01048
G1 X80.08 Y114.585 E.01725
G1 X80.012 Y114.318 E.01047
G1 X79.938 Y113.872 E.01718
G1 X79.916 Y113.597 E.01049
G1 X79.919 Y113.145 E.01718
G1 X79.944 Y112.871 E.01046
G1 X80.023 Y112.426 E.01718
G1 X80.094 Y112.161 E.01043
G1 X80.247 Y111.736 E.01717
G1 X80.362 Y111.487 E.01042
G1 X80.584 Y111.094 E.01715
G1 X80.738 Y110.868 E.01039
G1 X81.023 Y110.519 E.01713
G1 X81.214 Y110.322 E.01043
G1 X81.553 Y110.026 E.0171
G1 X81.774 Y109.864 E.01041
G1 X82.157 Y109.629 E.01708
G1 X82.402 Y109.507 E.0104
G1 X82.819 Y109.34 E.01707
G1 X83.081 Y109.26 E.01041
G1 X83.521 Y109.166 E.0171
G1 X83.792 Y109.132 E.01038
G1 X84.241 Y109.113 E.01708
G1 X84.514 Y109.124 E.01038
G1 X84.96 Y109.181 E.01709
G1 X85.228 Y109.238 E.01041
G1 X85.658 Y109.369 E.01708
G1 X85.912 Y109.471 E.0104
G1 X86.314 Y109.672 E.01708
G1 X86.547 Y109.815 E.01039
G1 X87.041 Y110.177 E.02328
G1 X87.03 Y109.255 E.03504
G1 X86.913 Y109.176 E.00537
G1 X85.357 Y107.559 E.08529
G1 X85.362 Y107.532 E.00104
G1 X85.371 Y107.533 E.00034
M204 P1000
G1 E-.64 F2100
;WIPE_START
G1 F9600
G1 X85.362 Y107.532 E-.00188
G1 X85.357 Y107.559 E-.00571
G1 X85.866 Y108.087 E-.15241
;WIPE_END
G1 Z.4 F720
G1 X83.824 Y110.481 F12000
G1 Z.2 F720
G1 E.8 F1500
M204 P600
G1 F1200
G1 X84.322 Y110.46 E.01894
G1 X84.815 Y110.522 E.01888
G1 X85.292 Y110.667 E.01895
G1 X85.737 Y110.89 E.01892
G1 X86.139 Y111.185 E.01895
G1 X86.486 Y111.544 E.01898
G1 X86.768 Y111.956 E.01898
G1 X86.976 Y112.41 E.01898
G1 X87.105 Y112.893 E.019
G1 X87.151 Y113.392 E.01905
G1 X87.111 Y113.892 E.01906
G1 X86.988 Y114.378 E.01905
G1 X86.783 Y114.837 E.01911
G1 X86.504 Y115.255 E.0191
G1 X86.158 Y115.62 E.01911
G1 X85.754 Y115.921 E.01915
G1 X85.305 Y116.149 E.01914
G1 X84.823 Y116.297 E.01916
G1 X84.323 Y116.362 E.01916
G1 X83.82 Y116.34 E.01914
G1 X83.327 Y116.233 E.01917
G1 X82.86 Y116.044 E.01915
G1 X82.432 Y115.779 E.01913
G1 X82.055 Y115.445 E.01914
G1 X81.741 Y115.052 E.01912
G1 X81.499 Y114.612 E.01909
G1 X81.334 Y114.137 E.01911
G1 X81.253 Y113.643 E.01903
G1 X81.256 Y113.142 E.01904
G1 X81.343 Y112.649 E.01903
G1 X81.513 Y112.179 E.019
G1 X81.759 Y111.744 E.01899
G1 X82.074 Y111.357 E.01896
G1 X82.45 Y111.029 E.01896
G1 X82.875 Y110.769 E.01894
G1 X83.337 Y110.585 E.0189
G1 X83.757 Y110.495 E.01633
M204 P1000
G1 X89.005 Y111.292 F12000
M204 P600
G1 F1200
G1 X89.005 Y110.578 E.02714
G1 X88.908 Y110.389 E.00807
G1 X88.434 Y109.748 E.0303
G1 X88.434 Y111.093 E.05112
G1 X87.862 Y111.1 E.02174
G1 X87.862 Y109.176 E.07312
G1 X87.75 Y109.068 E.00591
G1 X87.291 Y108.75 E.02122
G1 X87.291 Y112.11 E.1277
G1 X87.127 Y111.753 E.01493
G1 X86.806 Y111.283 E.02163
G1 X86.72 Y111.194 E.0047
G1 X86.72 Y110.451 E.02824
G1 X86.318 Y110.157 E.01893
G1 X86.148 Y110.053 E.00757
G1 X86.148 Y110.682 E.02391
G1 X85.953 Y110.538 E.00921
G1 X85.577 Y110.35 E.01598
G1 X85.577 Y109.78 E.02166
G1 X85.124 Y109.637 E.01805
G1 X85.006 Y109.612 E.00458
G1 X85.006 Y110.15 E.02045
G1 X84.902 Y110.119 E.00412
G1 X84.434 Y110.059 E.01793
G1 X84.434 Y109.533 E.01999
G1 X84.241 Y109.525 E.00734
G1 X83.863 Y109.541 E.01438
G1 X83.863 Y110.067 E.01999
G1 X83.772 Y110.071 E.00346
G1 X83.292 Y110.174 E.01866
G1 X83.292 Y109.636 E.02045
G1 X82.956 Y109.729 E.01325
G1 X82.72 Y109.823 E.00965
G1 X82.72 Y110.388 E.02147
G1 X82.205 Y110.696 E.02281
G1 X82.149 Y110.746 E.00285
G1 X82.149 Y110.117 E.02391
G1 X82.003 Y110.206 E.0065
G1 X81.81 Y110.347 E.00908
G1 X81.577 Y110.55 E.01175
G1 X81.577 Y111.646 E.04165
M204 P1000
G1 E-.64 F2100
;WIPE_START
G1 F9600
G1 X81.577 Y110.876 E-.16
;WIPE_END
G1 Z.4 F720
G1 X87.862 Y115.181 F12000
G1 Z.2 F720
G1 E.8 F1500
M204 P600
G1 F1200
G1 X87.862 Y111.542 E.13831
M204 P1000
G1 X87.291 Y116.055 F12000
M204 P600
G1 F1200
G1 X87.291 Y114.708 E.05119
G1 X87.145 Y115.036 E.01365
G1 X86.827 Y115.513 E.02179
G1 X86.72 Y115.625 E.00589
G1 X86.72 Y116.336 E.02702
G1 X86.341 Y116.624 E.01809
G1 X86.148 Y116.744 E.00864
G1 X86.148 Y116.14 E.02296
G1 X85.972 Y116.271 E.00834
G1 X85.577 Y116.472 E.01684
G1 X85.577 Y117.016 E.02068
G1 X85.136 Y117.156 E.01759
G1 X85.006 Y117.184 E.00505
G1 X85.006 Y116.671 E.0195
G1 X84.911 Y116.701 E.00379
G1 X84.434 Y116.762 E.01828
G1 X84.434 Y117.263 E.01904
G1 X84.242 Y117.271 E.0073
G1 X83.863 Y117.255 E.01442
G1 X83.863 Y116.754 E.01904
G1 X83.767 Y116.75 E.00365
G1 X83.292 Y116.646 E.01848
G1 X83.292 Y117.159 E.0195
G1 X83.172 Y117.133 E.00467
G1 X82.941 Y117.062 E.00918
G1 X82.72 Y116.973 E.00905
G1 X82.72 Y116.431 E.0206
G1 X82.673 Y116.412 E.00193
G1 X82.149 Y116.078 E.02362
G1 X82.149 Y116.679 E.02284
G1 X81.98 Y116.574 E.00756
G1 X81.786 Y116.43 E.00918
G1 X81.577 Y116.244 E.01063
G1 X81.577 Y115.176 E.04059
M204 P1000
G1 X81.006 Y115.93 F12000
M204 P600
G1 F1200
G1 X81.006 Y111.205 E.17958
G1 X80.933 Y111.312 E.00492
G1 X80.728 Y111.674 E.01581
G1 X80.628 Y111.892 E.00912
G1 X80.487 Y112.284 E.01583
G1 X80.435 Y112.48 E.00771
G1 X80.435 Y114.972 E.09471
M204 P1000
G1 E-.64 F2100
;WIPE_START
G1 F9600
G1 X80.435 Y114.202 E-.16
;WIPE_END
G1 Z.4 F720
G1 X81.716 Y113.911 F12000
G1 Z.2 F720
G1 E.8 F1500
M204 P600
;TYPE:Support material interface
;WIDTH:0.37
G1 F1200
G1 X81.737 Y114.035 E.00342
G1 X81.878 Y114.443 E.01174
G1 X82.086 Y114.821 E.01173
G1 X82.356 Y115.159 E.01177
G1 X82.68 Y115.446 E.01177
G1 X83.048 Y115.674 E.01177
G1 X83.449 Y115.836 E.01176
G1 X83.867 Y115.927 E.01163
G1 X81.69 Y113.75 E.08373
G1 X81.666 Y113.61 E.00386
G1 X81.669 Y113.179 E.01172
G1 X81.699 Y113.014 E.00456
G1 X82.576 Y113.891 E.03373
G1 X82.658 Y114.113 E.00644
G1 X82.771 Y114.317 E.00634
G1 X82.986 Y114.587 E.00939
G1 X83.205 Y114.775 E.00785
G1 X83.404 Y114.898 E.00636
G1 X83.707 Y115.022 E.0089
G1 X84.595 Y115.91 E.03415
G1 X84.735 Y115.891 E.00384
G1 X85.179 Y115.749 E.01268
G1 X84.497 Y115.066 E.02625
G1 X84.807 Y114.981 E.00874
G1 X85.043 Y114.867 E.00713
G1 X85.655 Y115.479 E.02354
G1 X85.882 Y115.309 E.00771
G1 X86.052 Y115.131 E.00669
G1 X85.454 Y114.533 E.023
G1 X85.54 Y114.436 E.00353
G1 X85.669 Y114.242 E.00634
G1 X85.746 Y114.08 E.00488
G1 X86.373 Y114.706 E.0241
G1 X86.42 Y114.636 E.00229
G1 X86.595 Y114.242 E.01172
G1 X86.607 Y114.195 E.00132
G1 X85.889 Y113.477 E.02762
G1 X85.893 Y113.359 E.00321
G1 X85.863 Y113.076 E.00774
M204 P1000
G1 E-.64 F2100
;WIPE_START
G1 F9600
G1 X85.893 Y113.359 E-.05914
G1 X85.889 Y113.477 E-.02454
G1 X86.149 Y113.737 E-.07632
;WIPE_END
G1 Z.4 F720
G1 X84.261 Y112.116 F12000
G1 Z.2 F720
G1 E.8 F1500
M204 P600
;TYPE:Support material
;WIDTH:0.5
G1 F1200
G1 X84.456 Y112.141 E.00747
G1 X84.663 Y112.203 E.00821
G1 X84.857 Y112.298 E.00821
G1 X85.033 Y112.425 E.00825
G1 X85.185 Y112.579 E.00822
G1 X85.319 Y112.775 E.00902
G1 X85.408 Y112.973 E.00825
G1 X85.462 Y113.183 E.00824
G1 X85.48 Y113.4 E.00828
G1 X85.461 Y113.617 E.00828
G1 X85.413 Y113.808 E.00748
G1 X85.325 Y114.008 E.0083
G1 X85.206 Y114.191 E.0083
G1 X85.056 Y114.351 E.00834
G1 X84.865 Y114.494 E.00907
G1 X84.669 Y114.591 E.00831
G1 X84.459 Y114.654 E.00833
G1 X84.242 Y114.68 E.00831
G1 X84.023 Y114.669 E.00833
G1 X83.809 Y114.621 E.00834
G1 X83.607 Y114.537 E.00831
G1 X83.438 Y114.433 E.00754
G1 X83.274 Y114.289 E.00829
G1 X83.136 Y114.119 E.00832
G1 X83.029 Y113.929 E.00829
G1 X82.956 Y113.724 E.00827
G1 X82.917 Y113.488 E.00909
G1 X82.92 Y113.271 E.00825
G1 X82.96 Y113.057 E.00827
G1 X83.035 Y112.853 E.00826
G1 X83.132 Y112.682 E.00747
G1 X83.268 Y112.513 E.00824
G1 X83.43 Y112.37 E.00821
G1 X83.632 Y112.246 E.00901
G1 X83.833 Y112.167 E.00821
G1 X84.025 Y112.126 E.00746
G1 X84.193 Y112.118 E.00639
M204 P1000
G1 X85.006 Y114.105 F12000
M204 P600
G1 F1200
G1 X85.006 Y113.079 E.03899
G1 X84.955 Y112.969 E.00461
G1 X84.872 Y112.847 E.00561
G1 X84.77 Y112.742 E.00556
G1 X84.651 Y112.655 E.0056
G1 X84.52 Y112.589 E.00558
G1 X84.434 Y112.563 E.00341
G1 X84.434 Y114.233 E.06347
G1 X84.234 Y114.268 E.00772
G1 X84.086 Y114.262 E.00563
G1 X83.94 Y114.23 E.00568
G1 X83.863 Y114.199 E.00315
G1 X83.863 Y112.375 E.06932
M204 P1000
G1 E-.64 F2100
;WIPE_START
G1 F9600
G1 X83.863 Y113.145 E-.16
;WIPE_END
G1 Z.4 F720
G1 X85.244 Y111.106 F12000
G1 Z.2 F720
G1 E.8 F1500
M204 P600
;TYPE:Support material interface
;WIDTH:0.37
G1 F1200
G1 X85.138 Y111.053 E.00322
G1 X84.876 Y110.973 E.00745
G1 X86.633 Y112.731 E.0676
G1 X86.696 Y112.966 E.00662
G1 X86.735 Y113.395 E.01172
G1 X86.722 Y113.565 E.00464
G1 X85.583 Y112.425 E.04383
G1 X85.494 Y112.304 E.00409
G1 X85.333 Y112.138 E.00629
G1 X85.168 Y112.011 E.00566
G1 X84.043 Y110.885 E.04329
G1 X83.877 Y110.892 E.00452
G1 X83.412 Y111 E.01298
G1 X84.119 Y111.707 E.02719
G1 X83.955 Y111.718 E.00447
G1 X83.73 Y111.767 E.00626
G1 X83.514 Y111.848 E.00627
G1 X82.903 Y111.237 E.0235
G1 X82.695 Y111.364 E.00663
G1 X82.476 Y111.555 E.0079
G1 X83.062 Y112.141 E.02254
G1 X82.958 Y112.238 E.00387
G1 X82.812 Y112.418 E.0063
G1 X82.73 Y112.554 E.00432
G1 X82.125 Y111.949 E.02327
G1 X81.89 Y112.352 E.01269
G1 X81.861 Y112.431 E.00229
G1 X82.531 Y113.1 E.02575
G1 X82.505 Y113.271 E.0047
G1 X82.504 Y113.503 E.00631
G1 X82.537 Y113.733 E.00632
M204 P1000
G1 E-.64 F2100
;WIPE_START
G1 F9600
G1 X82.504 Y113.503 E-.04829
G1 X82.505 Y113.271 E-.04821
G1 X82.531 Y113.1 E-.03594
G1 X82.437 Y113.006 E-.02756
;WIPE_END
G1 Z.4 F720
G1 X90.252 Y111.411 F12000
G1 Z.2 F720
G1 E.8 F1500
M204 P600
G1 F1200
G1 X90.12 Y110.999 E.01177
G1 X91.164 Y112.043 E.04015
G1 X91.089 Y111.607 E.01203
G1 X90.888 Y111.022 E.01682
G1 X85.444 Y105.578 E.20939
G1 X85.758 Y105.147 E.0145
G1 X90.224 Y109.613 E.17177
G1 X90.659 Y110.423 E.02501
M204 P1000
G1 X90.29 Y111.53 F12000
M204 P600
G1 F1200
G1 X90.374 Y111.792 E.00748
G1 X90.415 Y112.04 E.00684
G1 X91.28 Y112.905 E.03327
G1 X91.286 Y113.656 E.02043
G1 X90.528 Y112.899 E.02914
G1 X90.519 Y113.634 E.01999
G1 X91.211 Y114.327 E.02663
G1 X91.115 Y114.943 E.01696
G1 X91.107 Y114.968 E.00071
G1 X90.431 Y114.292 E.026
G1 X90.348 Y114.763 E.01301
G1 X90.302 Y114.908 E.00414
G1 X90.924 Y115.53 E.02392
G1 X90.767 Y116.008 E.01368
G1 X90.729 Y116.081 E.00224
G1 X90.11 Y115.461 E.02383
G1 X90.01 Y115.739 E.00803
G1 X89.881 Y115.978 E.00739
G1 X90.475 Y116.573 E.02287
G1 X90.254 Y117.001 E.0131
G1 X90.213 Y117.056 E.00187
G1 X89.62 Y116.463 E.02281
G1 X89.539 Y116.606 E.00447
G1 X89.314 Y116.902 E.01011
G1 X89.896 Y117.484 E.02238
G1 X89.577 Y117.91 E.01447
G1 X88.991 Y117.324 E.02254
G1 X88.615 Y117.694 E.01435
G1 X89.2 Y118.278 E.02248
G1 X88.822 Y118.646 E.01435
G1 X88.231 Y118.055 E.02273
G1 X87.789 Y118.359 E.01459
G1 X88.39 Y118.959 E.0231
G1 X87.952 Y119.267 E.01456
G1 X87.334 Y118.649 E.02377
G1 X86.829 Y118.89 E.01522
G1 X87.461 Y119.521 E.02429
G1 X86.959 Y119.765 E.01518
G1 X86.292 Y119.098 E.02565
G1 X85.716 Y119.267 E.01633
G1 X86.398 Y119.949 E.02623
G1 X85.825 Y120.122 E.01628
G1 X85.07 Y119.367 E.02904
G1 X84.677 Y119.418 E.01078
G1 X84.371 Y119.413 E.00832
G1 X85.252 Y120.294 E.03389
G1 X85.148 Y120.325 E.00295
G1 X84.814 Y120.277 E.00918
G1 X84.48 Y120.267 E.00909
G1 X83.595 Y119.383 E.03402
G1 X82.761 Y119.294 E.02281
G1 X83.713 Y120.246 E.03662
G1 X83.582 Y120.242 E.00356
G1 X82.89 Y120.168 E.01893
G1 X81.928 Y119.206 E.037
G1 X81.095 Y119.119 E.02278
G1 X82.055 Y120.079 E.03692
G1 X81.219 Y119.988 E.02287
G1 X80.263 Y119.032 E.03677
G1 X79.43 Y118.945 E.02278
G1 X80.383 Y119.897 E.03664
G1 X79.546 Y119.806 E.0229
G1 X78.598 Y118.858 E.03646
G1 X77.765 Y118.771 E.02278
G1 X78.71 Y119.715 E.03633
G1 X77.874 Y119.624 E.02287
G1 X76.933 Y118.683 E.03619
G1 X76.1 Y118.596 E.02278
G1 X77.037 Y119.533 E.03604
G1 X76.489 Y119.474 E.01499
G1 X76.247 Y119.489 E.00659
G1 X75.153 Y118.395 E.04208
G1 X75.143 Y118.431 E.00102
G1 X75.143 Y118.728 E.00808
G1 X75.127 Y118.885 E.00429
G1 X75.142 Y118.932 E.00134
G1 X75.336 Y119.323 E.01187
G1 X75.562 Y119.549 E.00869
M204 P1000
G1 E-.64 F2100
;WIPE_START
G1 F9600
G1 X75.336 Y119.323 E-.06642
G1 X75.142 Y118.932 E-.09071
G1 X75.138 Y118.919 E-.00287
;WIPE_END
G1 Z.4 F720
G1 X89.608 Y108.627 F12000
G1 Z.2 F720
G1 E.8 F1500
M204 P600
G1 F1200
G1 X89.604 Y108.247 E.01034
G1 X86.072 Y104.715 E.13585
G1 X86.386 Y104.283 E.01452
G1 X88.295 Y106.192 E.07342
